X:1
T:Title
%%score { ( 1 3 ) | 2 }
L:1/8
M:4/4
K:Eb
V:1 treble nm="Grand Piano"
V:3 treble 
V:2 bass 
V:1
 z4 z2[Q:1/4=94] EF | GGFG E2 G[FA] | [GB][GB][Ac][GB] [FA]<[DF] [DF][EG] | %3
 [FA][FA][GB][FA] [B,FA]<[B,EG] [G,E][=A,EF] |[M:3/4] [B,EG][G,E] [A,DF]>E E2 |[M:1/4] GB | %6
[M:4/4] e6 z2 | B6 z2 | e6 z2 | F6 z2 | GGAG G<E G[FA] | %11
 [GB][GB][Ac][GB] [GB]<[B,EG] [G,E][=A,EF] |[M:3/4] [B,EG][G,E] [A,DF]>[G,E] [G,E]2 |] %13
V:2
 z4 z2 [E,G,][E,A,E] | [E,B,E][E,B,E][E,A,E][E,B,E] [E,G,]2 [E,B,E][E,B,] | %2
 [E,E][E,E][E,E][E,B,] [B,,B,]<[B,,B,] [B,,B,][B,,B,] | [B,,B,][B,,B,][B,,B,][B,,B,] E,<E, E,C, | %4
[M:3/4] B,,B,, B,,>[E,G,] [E,G,]2 |[M:1/4] z2 |[M:4/4] z2 [E,G,][E,A,] [E,B,][E,B,][E,E][E,B,E] | %7
 [E,G,E]2 [B,,A,][B,,A,] [E,G,]2 z2 | z2 [E,G,][E,A,] [E,B,][E,B,][E,E][E,B,] | %9
 [B,,B,]2 [F,,F,][F,,F,] [B,,B,]2 [E,G,][E,=A,E] | %10
 [E,B,E][E,B,E][E,CE][E,B,E] [E,B,E]<[E,G,] [E,B,E][E,B,] | [E,E][E,E][E,E][E,E] [E,E]<E, E,C, | %12
[M:3/4] B,,B,, B,,>E, E,2 |] %13
V:3
 x8 | x8 | x8 | x8 |[M:3/4] x6 |[M:1/4] x2 |[M:4/4] z2 EF G[Ge][GB]G | z2 DD E2 GB | %8
 z2 EF G[Ge][GB][EG] | D2 [=A,E][A,E] D2 EF | x8 | x8 |[M:3/4] x6 |] %13

